X:1
T:Cosi bella voi sete
T:Benedetto Ferrari
T:Source : Musiche Varia a voce sola---Libro primo---Venetia---B.Magni---1633. Editor : André Vierendeels (31/12/16).
T:Notes : Original clefs : C4, F4 Figures in BC are notated in original print
T:Cosi bella voi sete
T:©
T:©
T:©
C:Benedetto Ferrari
Z:©
%%score 1 2
L:1/8
Q:1/4=100
M:6/4
K:C
V:1 treble-8 nm="Tenor" snm="T"
V:2 bass nm="MusicXML Part"
V:1
 z2 d2 e2 Tc3 B A2 | B4 B2 z6 | d3 e f2 e4 d2 | c4 A2 BA B^c d2 | e2 Te4 d6 | B6 B6 | B6 TB6 | %7
w: Co- si bel- la voi|se- te,|Don- na che con be-|gli'oc- ch'il cor _ _ _ _|m'ar- de- te,|il cor|m'ar- de-|
w: Dol- ce'a- mo- ro- so|fo- co|m'ar- de men- tr'io vi|mi- ro'à po- * * * co'à|po- co'e pur|in tal|ar- do-|
w: Ch'il lu- me, che lo|pri- va|di vi- ra, quell' i-|stes- so'an- co _ _ _ l'av-|vi- da'e ben|che cor-|r'à mor-|
[M:3/4] A6 ::[M:6/4] z12 | B2 c2 d2 e4 G2 | A4 A2 d6 | ^d4 d2 e4 =d2 | c3 d e2 d2 Td4 | c6 e6 | %14
w: te,||e nel mi- rar voi|so- la ah|qual dol- cez- za|l'a- ni- ma m'in- vo-|la, ah|
w: re,||ah che dol- ce mo-|ren- do hà|vi- ta'il co- *|re, hà vi- ta'il co-|re, ah|
w: te,||ah che _ vi- ta|è'l mo- rir|di que- st so-|te, di que- sta sor-|te, ah|
 d4 c2 B4 A2 | GA BA G^F E3 F G2 | A2 TA4 G6 :| %17
w: qual dol- cez- za|l'a- * * * * * * ni- ma|m'in- vuo- la.|
w: che dol- ce mo-|ren- * * * do, hà vi- * *|ta'il co- re.|
w: che vi- ta è'l|mo- * * * rir di _ _ _|_ _ _|
V:2
"^BC" z2 G,2 E,2 F,4 ^F,2 | G,4 G,,2 z2 DC B,A, | B,3 C D2 C4 B,2 | A,4 ^F,2 G,3 A, B,2 | %4
"^7""^6""^4  #""^#" ^F,2 A,4 D,6 | ^C,2 D,2 E,2 F,2 G,2 A,2 |"^5""^4   #""^6" D,6 E,6 | %7
[M:3/4] A,,6 ::[M:6/4] z G, TF,3 E, D,2 TC,3 B,, |"^#6" G,4 F,2 E,6 |"^#" D,4 D,,2 z2 D2 C2 | %11
 B,4 A,2 ^G,6 |"^4 3" A,2 B,2 C2 F,2 G,4 | C,6 C,2 D,2 E,2 | F,2 E,2 ^F,2 G,4 =F,2 | %15
 E,4 D,2 C,3 D, E,2 |"^4   #" C,2 D,4 G,,6 :| %17

